openmetadata-ui/src/main/resources/ui/src/assets/svg/icon-info.svg

<svg width="14" height="14" viewBox="0 0 14 14" fill="none" xmlns="http://www.w3.org/2000/svg">
    <path
        d="M7.80218 9.45472C7.67951 9.46615 7.55634 9.43847 7.45036 9.37561C7.37292 9.29611 7.3358 9.18575 7.34946 9.07562C7.35232 8.98393 7.36327 8.89266 7.38218 8.8029C7.40048 8.69991 7.42413 8.59796 7.45308 8.49744L7.7749 7.39015C7.80809 7.28087 7.83002 7.16846 7.84036 7.05469C7.84036 6.93197 7.85672 6.84741 7.85672 6.79833C7.86356 6.57959 7.77016 6.36969 7.60308 6.22833C7.39756 6.07055 7.14162 5.993 6.88308 6.01015C6.69781 6.01294 6.51396 6.04327 6.33762 6.10015C6.14489 6.16015 5.94216 6.23197 5.72944 6.31562L5.63672 6.67561C5.69944 6.65379 5.77582 6.62926 5.86308 6.60197C5.94633 6.57732 6.03263 6.56445 6.11944 6.56379C6.24122 6.5506 6.3638 6.58051 6.4658 6.64833C6.53508 6.731 6.56759 6.83839 6.5558 6.94561C6.55549 7.03733 6.54544 7.12876 6.5258 7.21833C6.5067 7.3138 6.48216 7.41469 6.45216 7.52105L6.12762 8.63377C6.10146 8.7372 6.08053 8.84187 6.0649 8.94741C6.05215 9.03776 6.04577 9.12889 6.0458 9.22013C6.04446 9.44037 6.14517 9.64883 6.31852 9.78467C6.5272 9.94491 6.7868 10.0243 7.04941 10.0083C7.23434 10.0121 7.41863 9.98539 7.59488 9.92921C7.74942 9.87647 7.95579 9.80103 8.21398 9.70285L8.30126 9.35921C8.23132 9.38822 8.1593 9.41192 8.0858 9.43011C7.99284 9.45134 7.89741 9.45959 7.80218 9.45472Z"
        fill="#6B7280" />
    <path
        d="M8.14228 4.20479C7.99385 4.06848 7.79829 3.99514 7.59682 4.00025C7.39547 3.9957 7.2001 4.06897 7.05136 4.20479C6.77874 4.43987 6.74829 4.85145 6.98339 5.1241C7.00435 5.1484 7.02706 5.17111 7.05136 5.19207C7.36196 5.46987 7.83169 5.46987 8.14226 5.19207C8.41489 4.95467 8.44346 4.54123 8.20606 4.26861C8.18632 4.2459 8.165 4.22457 8.14228 4.20479Z"
        fill="#6B7280" />
    <path
        d="M7 1C3.68629 1 1 3.68629 1 7C1 10.3137 3.68629 13 7 13C10.3137 13 13 10.3137 13 7C13 3.68629 10.3137 1 7 1ZM7 12.4545C3.98753 12.4545 1.54546 10.0125 1.54546 7C1.54546 3.98753 3.98753 1.54546 7 1.54546C10.0125 1.54546 12.4545 3.98753 12.4545 7C12.4545 10.0125 10.0125 12.4545 7 12.4545Z"
        fill="#6B7280" stroke="#6B7280" stroke-width="0.2" />
</svg>

<svg xmlns="http://www.w3.org/2000/svg" width="14" height="14" fill="none"><path fill="#6B7280" d="M7.802 9.455a.584.584 0 0 1-.352-.08.365.365 0 0 1-.1-.3c.002-.091.013-.182.032-.272a3 3 0 0 1 .071-.306l.322-1.107c.033-.11.055-.222.065-.335 0-.123.017-.208.017-.257a.717.717 0 0 0-.254-.57 1.066 1.066 0 0 0-.72-.218c-.185.003-.369.033-.545.09a8.88 8.88 0 0 0-.609.216l-.092.36c.062-.022.139-.047.226-.074a.928.928 0 0 1 .256-.038.524.524 0 0 1 .347.084c.07.083.102.19.09.298 0 .091-.01.183-.03.272-.02.096-.044.197-.074.303l-.324 1.113a3.177 3.177 0 0 0-.063.313c-.013.09-.02.182-.02.273 0 .22.1.429.274.565.208.16.468.24.73.223.185.004.37-.023.546-.079.154-.053.36-.128.619-.226l.087-.344c-.07.03-.142.053-.215.071-.093.021-.189.03-.284.025ZM8.142 4.205A.777.777 0 0 0 7.597 4a.783.783 0 0 0-.546.205.652.652 0 0 0 0 .987c.311.278.78.278 1.091 0a.655.655 0 0 0 0-.987Z"/><path fill="#6B7280" stroke="#6B7280" stroke-width=".2" d="M7 1a6 6 0 1 0 0 12A6 6 0 0 0 7 1Zm0 11.454A5.454 5.454 0 1 1 7 1.546a5.454 5.454 0 0 1 0 10.909Z"/></svg>
